svg/fluentui-system-icons/ic_fluent_scan_object_20_regular.svg

<svg width="20" height="20" viewBox="0 0 20 20" fill="none" xmlns="http://www.w3.org/2000/svg">
<path d="M4.5 3C3.67157 3 3 3.67157 3 4.5V6.5C3 6.77614 2.77614 7 2.5 7C2.22386 7 2 6.77614 2 6.5V4.5C2 3.11929 3.11929 2 4.5 2H6.5C6.77614 2 7 2.22386 7 2.5C7 2.77614 6.77614 3 6.5 3H4.5ZM15.5 17C16.3284 17 17 16.3284 17 15.5V13.5C17 13.2239 17.2239 13 17.5 13C17.7761 13 18 13.2239 18 13.5V15.5C18 16.8807 16.8807 18 15.5 18H13.5C13.2239 18 13 17.7761 13 17.5C13 17.2239 13.2239 17 13.5 17H15.5ZM17 4.5C17 3.67157 16.3284 3 15.5 3H13.5C13.2239 3 13 2.77614 13 2.5C13 2.22386 13.2239 2 13.5 2H15.5C16.8807 2 18 3.11929 18 4.5V6.5C18 6.77614 17.7761 7 17.5 7C17.2239 7 17 6.77614 17 6.5V4.5ZM4.5 17C3.67157 17 3 16.3284 3 15.5V13.5C3 13.2239 2.77614 13 2.5 13C2.22386 13 2 13.2239 2 13.5V15.5C2 16.8807 3.11929 18 4.5 18H6.5C6.77614 18 7 17.7761 7 17.5C7 17.2239 6.77614 17 6.5 17H4.5ZM11.2333 6.90302C10.6368 6.04144 9.36322 6.04144 8.76674 6.90302L6.17531 10.6462C5.48657 11.641 6.1986 13 7.4086 13H12.5915C13.8015 13 14.5135 11.641 13.8247 10.6462L11.2333 6.90302ZM9.58893 7.47223C9.78776 7.18504 10.2123 7.18504 10.4111 7.47223L13.0026 11.2154C13.2321 11.547 12.9948 12 12.5915 12H7.4086C7.00527 12 6.76792 11.547 6.9975 11.2154L9.58893 7.47223Z" fill="#212121"/>
</svg>

<svg xmlns="http://www.w3.org/2000/svg" width="20" height="20"><path d="M4.5 3A1.5 1.5 0 0 0 3 4.5v2a.5.5 0 0 1-1 0v-2A2.5 2.5 0 0 1 4.5 2h2a.5.5 0 0 1 0 1h-2Zm11 14a1.5 1.5 0 0 0 1.5-1.5v-2a.5.5 0 0 1 1 0v2a2.5 2.5 0 0 1-2.5 2.5h-2a.5.5 0 0 1 0-1h2ZM17 4.5A1.5 1.5 0 0 0 15.5 3h-2a.5.5 0 0 1 0-1h2A2.5 2.5 0 0 1 18 4.5v2a.5.5 0 0 1-1 0v-2ZM4.5 17A1.5 1.5 0 0 1 3 15.5v-2a.5.5 0 0 0-1 0v2A2.5 2.5 0 0 0 4.5 18h2a.5.5 0 0 0 0-1h-2Zm6.733-10.097a1.5 1.5 0 0 0-2.466 0l-2.592 3.743C5.487 11.641 6.2 13 7.41 13h5.183c1.21 0 1.921-1.359 1.233-2.354l-2.592-3.743Zm-1.644.57a.5.5 0 0 1 .822 0l2.592 3.742a.5.5 0 0 1-.412.785H7.41a.5.5 0 0 1-.412-.785L9.59 7.472Z"/></svg>
